!!!!SEGMENT:32Suikisanju_c.krn
!!!OTL: 水氣三重
!!!OPR:Eiga Banso Kyokusyu,jidai-geki,zenpen
!!!YOY:1929
!!!ONB:Kakutou,River
**kern
*clefG2
*k[]
*C:
*M2/4
=1
!LO:TX:a:B:t=Allegro
8r
8ddL
8ee
8ddJ
=2!|:
8eeL
8dd
8ee
8ddJ
=3
8.eL
16ffJk
8ffL
8ffJ
=4
8ffL
8ff
8ff
8eeJ
=5
8r
8eeL
8ff#X
8eeJ
=6
8ff#XL
8ee
8ff#
8eeJ
=7
8.eL
16ggk
8gg
8ggJ
=8
8ggL
8ggJ
8ggL
8ff#XJ
=9
8r
8ggL
8gg
8ff#XJ
=10
8ggL
8bb
8gg
8ff#XJ
=11
8eeL
8eeJ
16ff#XLL
16eeJ
8ccJ
=12
8ccL
8ff#XJ
16ff#LL
16eeJ
8ccJ
=13
8ccL
8ff#XJ
16ff#LL
16eeJ
8ccJ
=14
8bL
8aJ
8bL
8aJ
=15
4B
8eeL
8ccJ
=16
4b
8bL
8fJ
=17
8fL
8bJ
16bLL
16aJ
8fJ
=18
8fL
8bJ
16bLL
16aJ
8fJ
=19
8.eL
16ck
8B
8dJ
=20
8eL
8e
8.e
16gJk
=21
8.aL
16fk
8e
8dJ
=22
8eL
8ddJ
8eeL
8ddJ
=23:|
4e
4r
==
*-
!!!ENC: Yukiko Yoden
!!!END: 2023/06/11
